X: 39805
T: Theoretical Chemistry
R: jig
M: 6/8
K: Aminor
E|:"Am"A2A c>BA|e2a "E"^g3|"C"e2g "D"^f2d|"F7"c2_e "E7"dcB|
"Am"A2A c>BA|e2a "G"b2B|"F"c>de "E"c2^G|1 "Am"BAA A2E:|2 "Am"BAA A2 A/B/||
|:"C"c3 "G"dcB|"Am"A3 "Em"BAG|"F" F3 "C"GFE|"Bm7b5"DFA "E7"^G2 A/B/|
"Am"cec "G"BeB|"F"AeA "E"^G2E|"F7"AC_E "E7"D2B,|1 "Am" CA,A, A,2 A/B/:|2 "Am" CA,A, A,2 z||

